X:1256
T:Logger's Breakdown 
M:4/4 
L:1/8 
R:Reel
Z:<http://tunes.nhcountrydance.com>.
K:Bb 
"Bb"B,2DF BFDF | "Eb"E2GB eBGB   | "F7"F2Ac fcAc   |"Bb"BdcA BGFD| 
"Bb"B,2DF BFDF | "Eb"E2GB eBGB   | "F7"F2Ac fcAc   |"Bb"BdcA B4:| 
"Bb"B2df b2fb  | "Eb"a2g2 g^f g2 | "F7"A2 cf a2 fa | "Bb"g2f2f=ef2|
"Bb"B2df b2fb  | "Eb"a2g2 g^f g2 | "F7"f2 fg afcA  | "Bb"BdcA B4 :|

